svgs/sharp-regular/fan-table.svg

<svg xmlns="http://www.w3.org/2000/svg" viewBox="0 0 448 512"><!--! Font Awesome Pro 6.6.0 by @fontawesome - https://fontawesome.com License - https://fontawesome.com/license (Commercial License) Copyright 2024 Fonticons, Inc. --><path d="M224 400a176 176 0 1 0 0-352 176 176 0 1 0 0 352zM448 224c0 115.6-87.6 210.8-200 222.7l0 17.3 112 0 24 0 0 48-24 0-136 0L88 512l-24 0 0-48 24 0 112 0 0-17.3C87.6 434.8 0 339.6 0 224C0 100.3 100.3 0 224 0S448 100.3 448 224zM118.4 197.6c-16.6-41 3.2-87.6 44.2-104.1l22.3-9 38.2 94.4c16.7-23.7 45.8-37.5 76.6-33.2c43.8 6.1 74.2 46.6 68.1 90.4l-3.3 23.8L263.5 245.7c12.2 26.4 9.6 58.4-9.6 82.9c-27.2 34.8-77.5 41-112.3 13.8l-18.9-14.8 62.7-80.3c-28.9-2.6-55.4-21-67-49.7zM224 240a16 16 0 1 0 0-32 16 16 0 1 0 0 32z"/></svg>

<svg xmlns="http://www.w3.org/2000/svg" viewBox="0 0 448 512"><!--! Font Awesome Pro 6.4.0 by @fontawesome - https://fontawesome.com License - https://fontawesome.com/license (Commercial License) Copyright 2023 Fonticons, Inc. --><path d="M224 400a176 176 0 1 0 0-352 176 176 0 1 0 0 352zM448 224c0 115.6-87.6 210.8-200 222.7V464H360h24v48H360 224 88 64V464H88 200V446.7C87.6 434.8 0 339.6 0 224C0 100.3 100.3 0 224 0S448 100.3 448 224zM118.4 197.6c-16.6-41 3.2-87.6 44.2-104.1l22.3-9 38.2 94.4c16.7-23.7 45.8-37.5 76.6-33.2c43.8 6.1 74.2 46.6 68.1 90.4l-3.3 23.8L263.5 245.7c12.2 26.4 9.6 58.4-9.6 82.9c-27.2 34.8-77.5 41-112.3 13.8l-18.9-14.8 62.7-80.3c-28.9-2.6-55.4-21-67-49.7zM224 240a16 16 0 1 0 0-32 16 16 0 1 0 0 32z"/></svg>
